icons/grails-filled.svg

<svg width="256" height="256" viewBox="0 0 256 256" fill="none" xmlns="http://www.w3.org/2000/svg">
<path d="M196 0H60C26.8629 0 0 26.8629 0 60V196C0 229.137 26.8629 256 60 256H196C229.137 256 256 229.137 256 196V60C256 26.8629 229.137 0 196 0Z" fill="#FEB672"/>
<path d="M128 28C72.775 28 28 72.7688 28 128C28 183.225 72.775 228 128 228C183.231 228 228 183.225 228 128C228 72.7688 183.231 28 128 28ZM181.012 76.2C180.382 75.7381 179.681 75.3794 178.938 75.1375C178.059 74.8267 177.173 74.537 176.281 74.2688C175.365 73.9951 174.486 73.611 173.663 73.125C172.865 72.6529 172.182 72.0105 171.663 71.2438C171.144 70.4688 170.875 69.4375 170.875 68.1687C170.875 66.9375 171.125 65.8375 171.606 64.9187C172.08 64.0042 172.747 63.2043 173.563 62.575C174.375 61.95 175.325 61.4688 176.375 61.1563C177.45 60.8438 178.563 60.6813 179.688 60.6813C181 60.6813 182.281 60.8688 183.5 61.2375C184.669 61.5938 185.75 62.1937 186.694 63.0062L183.344 66.675C182.895 66.1669 182.319 65.7873 181.675 65.575C181.008 65.3287 180.304 65.1976 179.594 65.1875C179.194 65.1867 178.796 65.2307 178.406 65.3188C178.001 65.4088 177.61 65.5539 177.244 65.75C176.886 65.9374 176.576 66.2047 176.338 66.5313C176.095 66.8836 175.97 67.3037 175.981 67.7313C175.981 68.4938 176.256 69.0625 176.831 69.4688C177.369 69.85 178.056 70.1813 178.875 70.4438C179.675 70.7125 180.556 70.9813 181.475 71.2438C182.387 71.5063 183.25 71.8812 184.044 72.3562C184.837 72.8312 185.494 73.4813 186.006 74.2688C186.525 75.0625 186.781 76.1437 186.781 77.4812C186.781 78.7562 186.544 79.8813 186.069 80.8375C185.594 81.7875 184.944 82.5875 184.131 83.2125C183.284 83.8523 182.324 84.3253 181.3 84.6062C180.212 84.9187 179.063 85.0688 177.863 85.0688C176.363 85.0688 174.956 84.8375 173.675 84.3812C172.377 83.9068 171.185 83.1803 170.169 82.2438L173.65 78.4125C174.175 79.0752 174.844 79.6096 175.606 79.975C176.812 80.5459 178.173 80.6998 179.475 80.4125C179.89 80.3136 180.29 80.1579 180.662 79.95C181.009 79.7501 181.307 79.4771 181.538 79.15C181.766 78.8014 181.884 78.3918 181.875 77.975C181.89 77.6308 181.819 77.2883 181.668 76.9784C181.518 76.6685 181.292 76.401 181.012 76.2ZM153.45 61.275H158.356V79.9625H167.931V84.4687H153.45V61.2813V61.275ZM142.775 61.275H147.681V84.4687H142.775V61.2813V61.275ZM125.563 61.275H129.669L139.756 84.4687H134.212L132.194 79.5H122.9L120.944 84.475H115.538L125.563 61.275ZM95.1625 61.275H104.106C105.287 61.275 106.419 61.3875 107.481 61.625C108.525 61.8437 109.456 62.2313 110.244 62.7625C111.031 63.2938 111.662 64.0125 112.125 64.9C112.587 65.7937 112.825 66.9313 112.825 68.275C112.825 69.8875 112.4 71.2813 111.556 72.4188C110.692 73.5387 109.438 74.2927 108.044 74.5312L107.681 74.6063L113.619 84.4687H107.737L102.831 75.0937H100.069V84.4687H95.1625V61.2813V61.275ZM69.3875 67.8188C69.9706 66.3639 70.8577 65.0503 71.9895 63.966C73.1212 62.8817 74.4715 62.0516 75.95 61.5312C77.475 60.9687 79.1687 60.675 80.9812 60.675C82.8312 60.675 84.5625 60.9063 86.1313 61.35C87.6313 61.7813 88.9875 62.5312 90.1375 63.5687L86.675 67.35C86.0057 66.6762 85.2146 66.1354 84.3437 65.7563C83.2717 65.3461 82.1284 65.1548 80.9812 65.1938C79.8562 65.1938 78.8375 65.375 77.9313 65.7563C77.0451 66.1232 76.2449 66.6701 75.5813 67.3625C74.9313 68.05 74.425 68.875 74.0812 69.8125C73.7284 70.7946 73.5527 71.8315 73.5625 72.875C73.5625 73.9875 73.7312 75.025 74.0812 75.9563C74.425 76.8813 74.9313 77.7 75.5813 78.3813C76.2313 79.0688 77.0188 79.6063 77.9313 79.9875C78.8313 80.3625 79.8625 80.5563 80.9812 80.5563C82.1125 80.5563 83.1063 80.4312 83.9375 80.1687C84.7125 79.9312 85.3562 79.6812 85.8375 79.4187L85.8688 79.4063L85.9312 79.35L85.9813 79.2562V75.3187H81.775V70.8187H90.6875V82.8687C89.1875 83.6375 87.6188 84.2 86.0188 84.5375C84.3629 84.8905 82.6743 85.0665 80.9812 85.0625C79.1687 85.0625 77.4813 84.7812 75.95 84.2125C74.4713 83.6908 73.121 82.8595 71.9893 81.7741C70.8576 80.6887 69.9706 79.3743 69.3875 77.9187C68.7625 76.4187 68.45 74.7313 68.45 72.875C68.45 71.025 68.7625 69.3313 69.3875 67.8188ZM101.4 147.412C99.9 148.069 97.9875 148.819 97.2438 149.213C95.8688 149.95 93.7313 151.556 92.5313 153.4C91.6429 154.775 90.9744 156.281 90.55 157.862C90.3875 158.637 90.3 159.762 90.3188 161.087C90.3563 164.175 90.8875 168.287 91.9438 171.106C93.1563 174.306 93.8188 175.375 95.2063 178.619C95.8 179.994 96.35 181.294 96.6188 181.931C96.6736 182.056 96.6961 182.192 96.684 182.328C96.672 182.463 96.6259 182.593 96.55 182.706C95.8979 183.694 95.0138 184.507 93.975 185.075C91.575 186.369 86.5375 186.838 84.0313 186.85H84.0187C81.5187 186.831 76.475 186.369 74.0812 185.075C73.0412 184.506 72.157 183.691 71.5063 182.7C71.4309 182.588 71.3847 182.459 71.3716 182.325C71.3585 182.191 71.379 182.056 71.4312 181.931L72.8437 178.619C74.2375 175.369 74.8938 174.306 76.1063 171.106C77.1688 168.287 77.7 164.175 77.7313 161.087C77.7671 160.007 77.6896 158.926 77.5 157.862C77.0756 156.283 76.4072 154.779 75.5188 153.406C74.325 151.562 72.1875 149.95 70.8125 149.219C69.775 148.663 66.4813 147.431 65.1875 146.719C63.3622 145.69 61.6119 144.533 59.95 143.256C57.7947 141.463 55.79 139.496 53.9562 137.375C51.5937 134.437 49.4125 131 48.3625 127.294C47.05 122.694 47.1 120.725 46.925 119.237C46.9181 119.178 46.9236 119.117 46.9413 119.059C46.959 119.001 46.9884 118.948 47.0277 118.902C47.0671 118.856 47.1154 118.819 47.1698 118.793C47.2242 118.767 47.2834 118.752 47.3437 118.75C48.6062 118.706 53.1563 118.6 69.075 118.575C69.3875 118.575 69.6687 118.762 69.7812 119.062C74.2562 130.912 85.925 140.719 101.331 146.056C101.956 146.269 102.019 147.144 101.4 147.412ZM140.575 181.15C142.531 186.35 143.6 188.069 145.863 193.337C146.825 195.569 147.725 197.694 148.163 198.719C148.344 199.137 148.288 199.594 148.044 199.981C146.983 201.585 145.548 202.906 143.862 203.831C139.975 205.931 131.781 206.694 127.719 206.706H127.7C123.637 206.694 115.45 205.931 111.556 203.831C109.87 202.907 108.435 201.586 107.375 199.981C107.253 199.797 107.179 199.584 107.16 199.364C107.14 199.144 107.175 198.922 107.262 198.719C107.7 197.694 108.594 195.569 109.55 193.344C111.819 188.069 112.888 186.344 114.844 181.15C116.569 176.569 117.437 169.9 117.494 164.875C117.548 163.123 117.423 161.37 117.119 159.644C116.681 157.656 115.337 154.637 113.9 152.406C111.962 149.4 108.488 146.8 106.25 145.613C104.563 144.706 99.225 142.706 97.125 141.55C94.1602 139.883 91.3176 138.007 88.6187 135.938C86.0125 133.894 80.8875 128.875 78.8875 126.375C75.0437 121.613 71.5062 116.025 69.7937 110.006C67.6687 102.538 67.7563 99.3437 67.4688 96.9312C67.4566 96.8337 67.4647 96.7347 67.4927 96.6404C67.5207 96.5462 67.5678 96.4587 67.6312 96.3836C67.6946 96.3084 67.7729 96.2472 67.8611 96.2038C67.9493 96.1604 68.0455 96.1357 68.1438 96.1312C70.7375 96.0375 81.8 95.8 127.713 95.8437C173.625 95.8 184.688 96.0375 187.275 96.1312C187.694 96.15 188.006 96.5125 187.956 96.9312C187.669 99.3437 187.75 102.538 185.631 110.006C183.919 116.025 180.381 121.612 176.537 126.381C174.537 128.869 169.412 133.894 166.806 135.938C164.462 137.763 160.975 140.075 158.294 141.55C156.194 142.706 150.856 144.706 149.169 145.613C146.938 146.8 143.469 149.4 141.525 152.406C140.088 154.637 138.744 157.656 138.313 159.637C138.038 160.894 137.912 162.738 137.937 164.875C137.981 169.9 138.85 176.569 140.575 181.15ZM202.038 137.375C200.207 139.497 198.204 141.464 196.05 143.256C194.606 144.388 192.456 145.806 190.806 146.719C189.513 147.431 186.225 148.663 185.194 149.219C183.819 149.95 181.675 151.556 180.475 153.406C179.594 154.775 178.763 156.637 178.5 157.862C178.312 158.927 178.234 160.007 178.269 161.087C178.3 164.175 178.831 168.287 179.894 171.106C181.106 174.306 181.763 175.375 183.15 178.612L184.569 181.931C184.622 182.055 184.642 182.191 184.629 182.325C184.616 182.46 184.57 182.588 184.494 182.7C183.842 183.69 182.958 184.506 181.919 185.075C179.519 186.369 174.481 186.831 171.981 186.85H171.969C169.469 186.831 164.419 186.369 162.031 185.075C160.989 184.507 160.103 183.691 159.45 182.7C159.375 182.588 159.328 182.459 159.315 182.325C159.302 182.191 159.323 182.056 159.375 181.931C159.644 181.294 160.2 179.987 160.794 178.619C162.181 175.369 162.844 174.306 164.044 171.106C165.106 168.287 165.644 164.175 165.675 161.087C165.708 160.008 165.633 158.927 165.45 157.862C165.025 156.281 164.356 154.776 163.469 153.4C162.269 151.556 160.131 149.95 158.756 149.213C158.006 148.819 156.088 148.069 154.6 147.406C153.981 147.144 154.037 146.269 154.662 146.05C170.075 140.719 181.744 130.912 186.219 119.056C186.273 118.914 186.37 118.791 186.497 118.705C186.623 118.619 186.772 118.574 186.925 118.575C202.838 118.6 207.394 118.7 208.656 118.744C208.717 118.747 208.776 118.762 208.83 118.789C208.884 118.816 208.932 118.854 208.971 118.9C209.009 118.947 209.038 119.001 209.055 119.059C209.072 119.117 209.077 119.178 209.069 119.237C208.906 120.719 208.944 122.687 207.638 127.287C206.588 131 204.4 134.437 202.038 137.375ZM107.725 68.2312C107.754 68.7917 107.596 69.3458 107.275 69.8062C106.989 70.1733 106.609 70.4562 106.175 70.625C105.711 70.8034 105.222 70.9088 104.725 70.9375C104.234 70.9683 103.742 70.985 103.25 70.9875H100.063V65.3875H103.575C104.044 65.3875 104.525 65.4125 105.019 65.4875C105.519 65.55 105.969 65.6875 106.35 65.875C106.745 66.0714 107.083 66.3663 107.331 66.7313C107.608 67.1809 107.743 67.7037 107.719 68.2312H107.725ZM127.462 67.6062L130.537 75.3938H124.419L127.462 67.6062Z" fill="#F4F2ED"/>
</svg>

<svg xmlns="http://www.w3.org/2000/svg" width="256" height="256" fill="none"><path fill="#FEB672" d="M196 0H60C26.863 0 0 26.863 0 60v136c0 33.137 26.863 60 60 60h136c33.137 0 60-26.863 60-60V60c0-33.137-26.863-60-60-60"/><path fill="#F4F2ED" d="M128 28C72.775 28 28 72.769 28 128c0 55.225 44.775 100 100 100 55.231 0 100-44.775 100-100 0-55.231-44.769-100-100-100m53.012 48.2a7.4 7.4 0 0 0-2.074-1.062q-1.319-.466-2.657-.87a11.8 11.8 0 0 1-2.618-1.143 6.3 6.3 0 0 1-2-1.881c-.519-.775-.788-1.806-.788-3.075 0-1.231.25-2.331.731-3.25a7.1 7.1 0 0 1 1.957-2.344 8.6 8.6 0 0 1 2.812-1.419 12 12 0 0 1 3.313-.475c1.312 0 2.593.188 3.812.556a8.8 8.8 0 0 1 3.194 1.77l-3.35 3.668a3.8 3.8 0 0 0-1.669-1.1 6.3 6.3 0 0 0-2.081-.388q-.602 0-1.188.132c-.405.09-.796.235-1.162.431a2.6 2.6 0 0 0-.906.781 2.02 2.02 0 0 0-.357 1.2c0 .763.275 1.332.85 1.738.538.381 1.225.712 2.044.975.8.269 1.681.537 2.6.8.912.262 1.775.637 2.569 1.112a6.04 6.04 0 0 1 1.962 1.913c.519.793.775 1.875.775 3.212 0 1.275-.237 2.4-.712 3.357a6.8 6.8 0 0 1-1.938 2.375 8.4 8.4 0 0 1-2.831 1.393 12.4 12.4 0 0 1-3.437.463c-1.5 0-2.907-.231-4.188-.688a10.5 10.5 0 0 1-3.506-2.137l3.481-3.832a5.6 5.6 0 0 0 1.956 1.563 6 6 0 0 0 3.869.438 4.6 4.6 0 0 0 1.187-.463c.347-.2.645-.473.876-.8.228-.349.346-.758.337-1.175a2.07 2.07 0 0 0-.863-1.775M153.45 61.275h4.906v18.688h9.575v4.506H153.45zm-10.675 0h4.906v23.194h-4.906zm-17.212 0h4.106l10.087 23.194h-5.544l-2.018-4.969H122.9l-1.956 4.975h-5.406zm-30.4 0h8.943c1.181 0 2.313.113 3.375.35 1.044.219 1.975.606 2.763 1.138a5.74 5.74 0 0 1 1.881 2.137c.462.894.7 2.031.7 3.375 0 1.612-.425 3.006-1.269 4.144a5.64 5.64 0 0 1-3.512 2.112l-.363.075 5.938 9.863h-5.882l-4.906-9.375h-2.762v9.375h-4.907V61.275m-25.775 6.544a11 11 0 0 1 6.562-6.288c1.525-.562 3.219-.856 5.031-.856 1.85 0 3.582.231 5.15.675a10.1 10.1 0 0 1 4.007 2.219l-3.463 3.781a7.5 7.5 0 0 0-2.331-1.594 8.6 8.6 0 0 0-3.363-.562c-1.125 0-2.143.181-3.05.562a6.9 6.9 0 0 0-2.35 1.606 7.1 7.1 0 0 0-1.5 2.45 8.8 8.8 0 0 0-.519 3.063c0 1.112.17 2.15.52 3.081.343.925.85 1.744 1.5 2.425a6.8 6.8 0 0 0 2.35 1.606c.9.376 1.93.57 3.05.57 1.13 0 2.124-.126 2.956-.388.775-.238 1.418-.488 1.9-.75l.03-.013.063-.056.05-.094V75.32h-4.206v-4.5h8.912v12.05a18.7 18.7 0 0 1-4.668 1.668 24 24 0 0 1-5.038.525c-1.812 0-3.5-.28-5.031-.85a11.02 11.02 0 0 1-6.562-6.293c-.626-1.5-.938-3.188-.938-5.044 0-1.85.313-3.544.938-5.056m32.012 79.593c-1.5.657-3.413 1.407-4.156 1.801-1.375.737-3.513 2.343-4.713 4.187a15.8 15.8 0 0 0-1.981 4.462c-.162.775-.25 1.9-.231 3.225.037 3.088.569 7.2 1.625 10.019 1.212 3.2 1.875 4.269 3.262 7.513a450 450 0 0 1 1.413 3.312.81.81 0 0 1-.069.775 7.26 7.26 0 0 1-2.575 2.369c-2.4 1.294-7.437 1.763-9.944 1.775h-.012c-2.5-.019-7.544-.481-9.938-1.775a7.2 7.2 0 0 1-2.575-2.375.81.81 0 0 1-.075-.769l1.413-3.312c1.394-3.25 2.05-4.313 3.262-7.513 1.063-2.819 1.594-6.931 1.625-10.019a15.5 15.5 0 0 0-.231-3.225 15.7 15.7 0 0 0-1.981-4.456c-1.194-1.844-3.332-3.456-4.707-4.187-1.037-.556-4.33-1.788-5.624-2.5a44 44 0 0 1-5.238-3.463 51 51 0 0 1-5.994-5.881c-2.362-2.938-4.544-6.375-5.594-10.081-1.312-4.6-1.262-6.569-1.437-8.057a.44.44 0 0 1 .419-.487c1.262-.044 5.812-.15 21.731-.175.313 0 .594.187.706.487 4.475 11.85 16.144 21.657 31.55 26.994.625.213.688 1.088.069 1.356m39.175 33.738c1.956 5.2 3.025 6.919 5.288 12.187.962 2.232 1.862 4.357 2.3 5.382.181.418.125.875-.119 1.262a11.84 11.84 0 0 1-4.182 3.85c-3.887 2.1-12.081 2.863-16.143 2.875h-.019c-4.063-.012-12.25-.775-16.144-2.875a11.8 11.8 0 0 1-4.181-3.85 1.33 1.33 0 0 1-.113-1.262c.438-1.025 1.332-3.15 2.288-5.375 2.269-5.275 3.338-7 5.294-12.194 1.725-4.581 2.593-11.25 2.65-16.275a25.6 25.6 0 0 0-.375-5.231c-.438-1.988-1.782-5.007-3.219-7.238-1.938-3.006-5.412-5.606-7.65-6.793-1.687-.907-7.025-2.907-9.125-4.063a72 72 0 0 1-8.506-5.612c-2.606-2.044-7.731-7.063-9.731-9.563-3.844-4.762-7.382-10.35-9.094-16.369-2.125-7.468-2.038-10.662-2.325-13.075a.71.71 0 0 1 .675-.8c2.593-.094 13.656-.331 59.569-.287 45.912-.044 56.975.194 59.562.287a.713.713 0 0 1 .681.8c-.287 2.413-.206 5.607-2.325 13.075-1.712 6.019-5.25 11.606-9.094 16.375-2 2.488-7.125 7.513-9.731 9.557-2.344 1.825-5.831 4.137-8.512 5.612-2.1 1.156-7.438 3.156-9.125 4.063-2.231 1.187-5.7 3.787-7.644 6.793-1.437 2.231-2.781 5.25-3.212 7.231-.275 1.257-.401 3.101-.376 5.238.044 5.025.913 11.694 2.638 16.275m61.463-43.775a51 51 0 0 1-5.988 5.881c-1.444 1.132-3.594 2.55-5.244 3.463-1.293.712-4.581 1.944-5.612 2.5-1.375.731-3.519 2.337-4.719 4.187-.881 1.369-1.712 3.231-1.975 4.456a15.6 15.6 0 0 0-.231 3.225c.031 3.088.562 7.2 1.625 10.019 1.212 3.2 1.869 4.269 3.256 7.506l1.419 3.319a.8.8 0 0 1-.075.769 7.26 7.26 0 0 1-2.575 2.375c-2.4 1.294-7.438 1.756-9.938 1.775h-.012c-2.5-.019-7.55-.481-9.938-1.775a7.24 7.24 0 0 1-2.581-2.375.82.82 0 0 1-.075-.769c.269-.637.825-1.944 1.419-3.312 1.387-3.25 2.05-4.313 3.25-7.513 1.062-2.819 1.6-6.931 1.631-10.019a16 16 0 0 0-.225-3.225 15.8 15.8 0 0 0-1.981-4.462c-1.2-1.844-3.338-3.45-4.713-4.187-.75-.394-2.668-1.144-4.156-1.807-.619-.262-.563-1.137.062-1.356 15.413-5.331 27.082-15.138 31.557-26.994a.74.74 0 0 1 .706-.481c15.913.025 20.469.125 21.731.169a.436.436 0 0 1 .413.493c-.163 1.482-.125 3.45-1.431 8.05-1.05 3.713-3.238 7.15-5.6 10.088m-94.313-69.144a2.53 2.53 0 0 1-.45 1.575 2.6 2.6 0 0 1-1.1.819 4.8 4.8 0 0 1-1.45.313q-.737.045-1.475.05h-3.187v-5.6h3.512c.469 0 .95.024 1.444.1.5.062.95.2 1.331.387.395.196.733.491.981.856.277.45.412.973.388 1.5zm19.737-.625 3.075 7.788h-6.118z"/></svg>
